X: 1
T: Commonality
M: 4/4
L: 1/8
R: reel
K: Edor
B2AB GEED|EFGA ~B3G|AGFE D2(3EFG|AGFE DEFG|
AddA FDAF|EFGA ~B3d|eE~E2 DEGA|B2AB GEE2:|
edBA ^GABc|dBec dGBd|edBA ^GABc|dBA=c BEE2|
edBA ^GABc|dBec dGBd|ABcd ~e3c|dBA=c BEE2:|
